X: 584
%
T: Speed the Plough
C:
O:Scotland
B:Keith Norman MacDonald : "The Skye collection of the best reels & strathspeys extant" : 1887
Z:Ralph Palmer
R:Reel
M:C
L:1/8
K:A
F | A2Ac (ef)ec | eaec efec | dfdB cecA | FBBA GBBc |
A2Ac (ef)ec | eaec efec | decd BcAB | FAGB A2A ||
g | aAaA (aA)eA | (aA)gA (fA)eA | dfdB cecA | FBBA GBBe |
u(c/2B/2A) eA (fA)eA | fgaf ecAc | decd BcAB | FAGB A2 A |]
W:The slurs may be omitted to suit the fancy of the player.


